src/assets/images/hubs/astroport.svg

<svg viewBox="0 0 56 56" fill="none" xmlns="http://www.w3.org/2000/svg">
<g clip-path="url(#clip0_314_732)">
<rect width="56" height="56" rx="28" fill="url(#paint0_linear_314_732)"/>
<path d="M31.145 32.4503V32.4426C29.1143 32.4015 27.4805 30.7606 27.4805 28.7388C27.4805 30.7563 25.8526 32.3947 23.8278 32.4418V32.4503C25.8526 32.4973 27.4805 34.1358 27.4805 36.1533C27.4796 34.1324 29.1143 32.4914 31.145 32.4503Z" fill="white"/>
<path d="M30.3941 14H24.737C24.0074 14 23.3396 14.4124 23.0052 15.0695L10.1229 40.3816C9.74804 41.1191 10.2758 41.9978 11.0948 41.9978H17.5997C18.3359 41.9978 19.0089 41.5777 19.3399 40.9121L22.8 33.9537C23.2703 33.0074 23.2628 31.8901 22.7789 30.9506L20.2889 26.1149C19.6118 24.7999 20.5541 23.2257 22.0182 23.2273L33.1257 23.2393C34.5897 23.2411 35.5287 24.817 34.8489 26.1303L32.0466 31.5479C31.7544 32.1116 31.7494 32.7841 32.0322 33.3531L35.7912 40.913C36.1222 41.5786 36.7952 41.9987 37.5315 41.9987H44.0364C44.8554 41.9987 45.3831 41.12 45.0082 40.3825L32.1259 15.0695C31.7916 14.4124 31.1228 14 30.3941 14Z" fill="white"/>
</g>
<defs>
<linearGradient id="paint0_linear_314_732" x1="12" y1="5.5" x2="44.5" y2="49.5" gradientUnits="userSpaceOnUse">
<stop stop-color="#199FD5"/>
<stop offset="0.540065" stop-color="#4D50ED"/>
<stop offset="1" stop-color="#3238E7"/>
</linearGradient>
<clipPath id="clip0_314_732">
<rect width="56" height="56" fill="white"/>
</clipPath>
</defs>
</svg>

<svg viewBox="0 0 56 56" fill="none" xmlns="http://www.w3.org/2000/svg"><g clip-path="url(#a)"><rect width="56" height="56" rx="28" fill="url(#b)"/><path d="M31.145 32.45v-.007c-2.03-.041-3.665-1.682-3.665-3.704 0 2.017-1.627 3.656-3.652 3.703v.008c2.025.047 3.652 1.686 3.652 3.703 0-2.02 1.634-3.662 3.665-3.703Z" fill="#fff"/><path d="M30.394 14h-5.657c-.73 0-1.397.412-1.732 1.07L10.123 40.382c-.375.737.153 1.616.972 1.616H17.6c.736 0 1.409-.42 1.74-1.086l3.46-6.958a3.33 3.33 0 0 0-.021-3.003l-2.49-4.836c-.677-1.315.265-2.89 1.73-2.888l11.107.012c1.464.002 2.403 1.578 1.723 2.891l-2.802 5.418a1.997 1.997 0 0 0-.015 1.805l3.76 7.56a1.946 1.946 0 0 0 1.74 1.086h6.504c.82 0 1.347-.879.972-1.617L32.126 15.07A1.946 1.946 0 0 0 30.394 14Z" fill="#fff"/></g><defs><linearGradient id="b" x1="12" y1="5.5" x2="44.5" y2="49.5" gradientUnits="userSpaceOnUse"><stop stop-color="#199FD5"/><stop offset=".54" stop-color="#4D50ED"/><stop offset="1" stop-color="#3238E7"/></linearGradient><clipPath id="a"><path fill="#fff" d="M0 0h56v56H0z"/></clipPath></defs></svg>
